!!!OTL: 814b. Kein Einlass.
!!!ODT: 1880
!!!ARE: Europa, Mitteleuropa, Deutschland, Hessen, Dill - Kreis
!!!SCT: E0814B
!!!TXL: @@DE
!!!YEM: Copyright 1995, estate of Helmut Schaffrath.
**kern	**text
*ICvox	*
*M3/4	*
*k[f#c#g#]	*
*A:	*
!LO:TX:a:t=Aus dem Dillkreis um 1880.	!
{4e	Wers
=1	=1
4a	Lie-
4e	-ben
8f#L	be-
8g#J	.
=2	=2
4a	-tracht,
4r}	.
{4cc#	der
=3	=3
4cc#	wünſcht
4b	es
8eeL	wär'
8ddJ	.
=4	=4
2cc#	Nacht.
4r}	.
=5	=5
{8.cc#	Muß
16b	ein-
8.b	-mal
16b	ʒu
8cc#	mei-
8b	-nem
=6	=6
4cc#	Schätʒ-
4ee	-lein
4cc#}	gehn,
=7	=7
{8.cc#	muß
16b	ein-
8.b	-mal
16b	vor
8cc#	ih-
8b	-rem
=8	=8
4cc#	Fen-
4ee	-ſter
4cc#}	ſtehn,
=9	=9
{8ee	ob
8ff#	ſie
4ee	mir
8cc#L	auf-
8ddJ	.
=10	=10
4cc#	-macht.
4r}	.
==	==
!!!AGN: Kilt - Lied
!!!ONB: ESAC (Essen Associative Code) Database: ERK2
!!!AMT: simple triple
!!!AIN: vox
!!!EED: Helmut Schaffrath
!!!EEV: 1.0
!!!GTL: Tagelieder und Kiltgesaenge
!!!URL-scan: https://rosdok.uni-rostock.de/mcrviewer/recordIdentifier/rosdok_ppn745177662/iview2/phys_0623.iview2?x=193.8995864193107&y=1810.6505445921794&scale=0.7029437510502773&rotation=0&layout=singlePageLayout
!!!ENC: Anna Maria Matuszewska
!!!EEV: 2024/12/17
*-	*-
